src/main/resources/org/apache/netbeans/nbpackage/apache-netbeans.svg

<?xml version="1.0" encoding="UTF-8" standalone="no"?>
<svg
   xmlns:dc="http://purl.org/dc/elements/1.1/"
   xmlns:cc="http://creativecommons.org/ns#"
   xmlns:rdf="http://www.w3.org/1999/02/22-rdf-syntax-ns#"
   xmlns:svg="http://www.w3.org/2000/svg"
   xmlns="http://www.w3.org/2000/svg"
   id="svg23"
   version="1.1"
   viewBox="0 0 64 64"
   height="64"
   width="64">
  <metadata
     id="metadata29">
    <rdf:RDF>
      <cc:Work
         rdf:about="">
        <dc:format>image/svg+xml</dc:format>
        <dc:type
           rdf:resource="http://purl.org/dc/dcmitype/StillImage" />
        <dc:title>Apache NetBeans Logo</dc:title>
      </cc:Work>
    </rdf:RDF>
  </metadata>
  <defs
     id="defs27" />
  <title
     id="title2">Apache NetBeans Logo</title>
  <description>Apache NetBeans Logo</description>
  <g
     transform="matrix(0.125,0,0,0.125,4.25,0)"
     style="fill:none;fill-rule:evenodd;stroke-width:0"
     id="logo">
    <path
       style="fill:#a1c535"
       id="path4"
       d="M 222,0 V 99 L 86,178 0,128 Z" />
    <path
       style="fill:#add439"
       id="path6"
       d="M 444,128 358,178 222,99 V 0 Z" />
    <path
       style="fill:#1b6ac6"
       id="path8"
       d="M 444,384 358,334 V 178 l 86,-50 z" />
    <path
       style="fill:#2e90e8"
       id="path10"
       d="m 222,512 v -99 l 136,-79 86,50 z" />
    <path
       style="fill:#ea205e"
       id="path12"
       d="m 0,384 86,-50 136,79 v 99 z" />
    <path
       style="fill:#a5073e"
       id="path14"
       d="m 0,128 86,50 V 334 L 0,384 Z" />
    <path
       style="fill:#f1f6e2"
       id="path16"
       d="M 86,178 222,99 358,178 222,256 Z" />
    <path
       style="fill:#cedbe6"
       id="path18"
       d="M 222,256 358,178 V 334 L 222,413 Z" />
    <path
       style="fill:#ffffff"
       id="path20"
       d="m 86,178 136,78 V 413 L 86,334 Z" />
  </g>
</svg>

<?xml version="1.0" encoding="UTF-8"?>
<!--

    Licensed to the Apache Software Foundation (ASF) under one
    or more contributor license agreements.  See the NOTICE file
    distributed with this work for additional information
    regarding copyright ownership.  The ASF licenses this file
    to you under the Apache License, Version 2.0 (the
    "License"); you may not use this file except in compliance
    with the License.  You may obtain a copy of the License at

      http://www.apache.org/licenses/LICENSE-2.0

    Unless required by applicable law or agreed to in writing,
    software distributed under the License is distributed on an
    "AS IS" BASIS, WITHOUT WARRANTIES OR CONDITIONS OF ANY
    KIND, either express or implied.  See the License for the
    specific language governing permissions and limitations
    under the License.

-->
<svg xmlns="http://www.w3.org/2000/svg" width="444px" height="512px" viewBox="0 0 444 512" version="1.1">
  <title>Apache NetBeans Logo</title>
  <description>Apache NetBeans Logo</description>
  <g id="logo" stroke-width="0" fill="none" fill-rule="evenodd">
    <path d="M222,0 L222,99 L86,178 L0,128 L222,0 Z" fill="#A1C535"/>
    <path d="M444,128 L358,178 L222,99 L222,0 L444,128 L444,128 Z" fill="#ADD439"/>
    <path d="M444,384 L358,334 L358,178 L444,128 L444,384 L444,384 Z" fill="#1B6AC6"/>
    <path d="M222,512 L222,413 L358,334 L444,384 L222,512 L222,512 Z" fill="#2E90E8"/>
    <path d="M0,384 L86,334 L222,413 L222,512 L0,384 L0,384 Z" fill="#EA205E"/>
    <path d="M0,128 L86,178 L86,334 L0,384 L0,128 L0,128 Z" fill="#A5073E"/>
    <path d="M86,178 L222,99 L358,178 L222,256 L86,178 Z" fill="#F1F6E2"/>
    <path d="M222,256 L358,178 L358,334 L222,413 L222,256 Z" fill="#CEDBE6"/>
    <path d="M86,178 L222,256 L222,413 L86,334 L86,178 Z" fill="#FFFFFF"/>
  </g>
</svg>
